X:1
T: Miss Falconer
C:
R:Reel
Q: 232
K:Am
M:4/4
L:1/8
|:c1/2B1/2|AE AB c2 cd|BG dG eG dG|AE AB c2 cd|BG dB cA Ac1/2B1/2|
AE AB c2 cd|BG dG eG dG|AE AB c2 cd|BG dB cA AB|
Aa a^g ae cA|Gg g^f gd BG|Aa a^g ae df|ec dB cA AB|
Aa a^g ae cA|Gg g^f gd BG|Ac Bd ce df|ec dB cA A:|
